drivers/zone/assets/icon.svg

<svg height="960" viewBox="0 0 960 960" width="960" xmlns="http://www.w3.org/2000/svg"><path d="m112.662482 31.8499666.230522.0203885.068861-.0059034c1.288186-.0847986 2.591687-.1169496 3.908487-.0942816l.791661.0201964 793.637843 28.325436c24.644314.8793674 44.869905 20.9927764 44.869905 46.2359285v746.826366c0 25.243153-20.225591 45.356562-44.869575 46.235918l-793.713845 28.328076c-1.581908.060086-3.145517.027367-4.687328-.07453l-.110009-.008206-.420848.034107c-3.033899.224112-6.127509.108715-9.227789-.402233l-.172363-.029874-63.5962192-8.146119c-3.5070235-.449266-6.9378851-1.361384-10.2031609-2.711678l-.6971349-.296047c-8.828727-3.848284-14.2291826-9.408397-18.1378066-15.761078-1.6930796-2.75176-2.81658111-5.252041-3.70151031-7.758603-.83899286-2.376447-1.32896708-4.374899-1.70713644-6.413092-.34778276-1.874422-.55181542-3.577756-.70022244-5.380584-.19266517-2.34047-.2858093-4.960253-.2858093-7.616089v-777.2954635c.01181065-2.5850136.11084798-5.119634.30688636-7.3972897.15458398-1.796021.36556679-3.4951714.72625449-5.380222.39433274-2.0608887.90491255-4.084393 1.77627961-6.4880228.91278684-2.5178846 2.06979632-5.0293251 3.80038823-7.7793958 3.9084064-6.2108192 9.2864019-11.6509559 17.9226764-15.4153535 1.6649721-.7257315 3.3774406-1.3372195 5.1255168-1.8302186l64.2109981-18.108744.4075561-.1238774c4.84285-1.4322959 9.723754-1.8932825 14.446922-1.5095111zm3.346986 39.9080757h-.223828c-3.193226.1319622-5.729046 2.7301622-5.846636 6.0503552v.2327909 803.4474516c0 3.508774 2.697715 6.271379 6.070464 6.283146h.225828l793.638173-28.332319c3.477346-.12408 6.296292-2.927391 6.296292-6.26137v-746.826366c0-3.333978-2.818946-6.137289-6.296292-6.261369l-793.638173-28.3323197zm-26.0590388 5.4967675-45.4959956 12.8355524c-.2760378.1203199-.5013944 2.7599531-.5147989 5.959802v777.4295008l.0087896.857324c.0460077 2.801637.2550659 4.993096.5060093 5.102478l45.7568823 5.86595c-.1794723-1.246646-.272312-2.521105-.272312-3.816777v-803.4474516l.0028628-.3938657zm134.3918158 81.3524292 596.284374 16.366797c12.297294.337536 22.318208 10.304765 22.318208 22.521358v363.501447c0 12.290619-10.134634 22.181032-22.505503 22.288753l-596.285068 5.194401c-12.563646.106846-22.678971-10.155607-22.678971-22.77721v-384.559886c0-12.694729 10.230953-22.882493 22.86696-22.53566zm-.548753 19.990802c-1.273377-.033283-2.318207 1.007136-2.318207 2.544858v384.559886c0 1.610699 1.160314 2.787891 2.505502 2.776439l596.284383-5.192871c1.538506-.013397 2.679657-1.127048 2.679657-2.289512v-363.501447c0-1.236491-1.254871-2.484639-2.866961-2.528887z"/></svg>

<?xml version="1.0" encoding="UTF-8" standalone="no"?>
<!DOCTYPE svg PUBLIC "-//W3C//DTD SVG 1.1//EN" "http://www.w3.org/Graphics/SVG/1.1/DTD/svg11.dtd">
<svg width="100%" height="100%" viewBox="0 0 960 960" version="1.1" xmlns="http://www.w3.org/2000/svg" xmlns:xlink="http://www.w3.org/1999/xlink" xml:space="preserve" xmlns:serif="http://www.serif.com/" style="fill-rule:evenodd;clip-rule:evenodd;stroke-linecap:round;stroke-linejoin:round;stroke-miterlimit:1.5;">
    <path d="M112.662,31.85L112.893,31.87L112.962,31.864C114.25,31.78 115.554,31.748 116.87,31.77L117.662,31.79L911.3,60.116C935.944,60.995 956.17,81.109 956.17,106.352L956.17,853.178C956.17,878.421 935.944,898.535 911.3,899.414L117.586,927.742C116.004,927.802 114.441,927.769 112.899,927.668L112.789,927.659L112.368,927.693C109.334,927.918 106.241,927.802 103.14,927.291L102.968,927.261L39.372,919.115C35.865,918.666 32.434,917.754 29.169,916.404L28.471,916.108C19.643,912.259 14.242,906.699 10.334,900.346C8.641,897.595 7.517,895.094 6.632,892.588C5.793,890.211 5.303,888.213 4.925,886.175C4.577,884.3 4.373,882.597 4.225,880.794C4.032,878.454 3.939,875.834 3.939,873.178L3.939,95.883C3.951,93.298 4.05,90.763 4.246,88.485C4.4,86.689 4.611,84.99 4.972,83.105C5.366,81.044 5.877,79.021 6.748,76.617C7.661,74.099 8.818,71.588 10.549,68.838C14.457,62.627 19.835,57.187 28.471,53.422C30.136,52.697 31.849,52.085 33.597,51.592L97.808,33.483L98.216,33.359C103.058,31.927 107.939,31.466 112.662,31.85ZM116.235,71.758L115.786,71.758C112.592,71.89 110.057,74.488 109.939,77.808L109.939,881.489C109.939,884.997 112.637,887.76 116.009,887.772L116.235,887.772L909.873,859.439C913.351,859.315 916.17,856.512 916.17,853.178L916.17,106.352C916.17,103.018 913.351,100.214 909.873,100.09L116.235,71.758ZM89.95,77.255L44.454,90.09C44.178,90.211 43.953,92.85 43.94,96.05L43.94,873.48L43.948,874.337C43.994,877.139 44.203,879.33 44.454,879.439L90.211,885.305C90.032,884.059 89.939,882.784 89.939,881.489L89.939,78.041L89.942,77.647L89.95,77.255ZM224.342,158.607L820.627,174.974C832.924,175.312 842.945,185.279 842.945,197.495L842.945,560.997C842.945,573.287 832.81,583.178 820.439,583.286L224.154,588.48C211.591,588.587 201.475,578.324 201.475,565.703L201.475,181.143C201.475,168.448 211.706,158.26 224.342,158.607ZM223.793,178.598C222.52,178.565 221.475,179.605 221.475,181.143L221.475,565.703C221.475,567.313 222.636,568.491 223.981,568.479L820.265,563.286C821.804,563.273 822.945,562.159 822.945,560.997L822.945,197.495C822.945,196.259 821.69,195.011 820.078,194.967L223.793,178.598Z" style="fill-rule:nonzero;"/>
    <g transform="matrix(1,0,0,1,-21.3399,-16.1413)">
        <ellipse cx="569.955" cy="738.32" rx="138.777" ry="76.9" style="fill:none;stroke:black;stroke-width:19px;"/>
    </g>
</svg>
